static/assets/svg/human/humanClothes/pants1_stickers/pants1_sticker11.svg

<svg class="bottomOverlay" width="86" height="380" viewBox="202.715 584.407 86.593 380.048" xmlns="http://www.w3.org/2000/svg" xmlns:xlink="http://www.w3.org/1999/xlink"><defs><pattern id="a" width="20" height="20" patternUnits="userSpaceOnUse" viewBox="0 0 100 100"><path fill="#668d69" d="M-12.007-9.324h127.001v119.946H-12.007z"/><path d="M65.98 55.86c0 5.202-10.731 11.968-14.57 15.274-6.786 5.841-3.75 3.326-10.454 8.725-3.268 2.634-4.117 3.58-7.285 5.454-1.637.971-3.587 2.227-5.385 3.002-7.548 3.247-7.378-8.492-6.335-11.183.644-1.665 1.587-3.239 2.218-4.908.862-2.289 2.172-10.611 5.067-12.274 3.184-1.826 11.994 2.145 13.938 3.819.355.308.949 3.818.949 3.818s-.044-1.85 0-1.908c.446-.574 2.339-1.458 3.168-1.637 2.675-.575 6.918.114 9.186 1.09" stroke="#000" fill="#dab255"/><path d="M94.49 46.861c-.612 2.637-2.115 4.347-1.582 7.091.086.453 1.582 3.545 1.582 3.545s-3.631-1.382-5.385-2.182c-5.195-2.368-8.979-6.455-14.254-8.728-.735-.315-3.168-2.453-3.168-2.453s.997 3.777.632 4.091c-2.121 1.827-4.103 3.521-5.699 6.271-.075.125-2.341 3.441-2.536 3.273-.807-.693.248-4.788.316-5.454.635-5.999-2.38-9.045 5.07-11.182 3.718-1.067 4.751 2.455 6.651 4.09.783.674 4.254.442 5.385 1.092 1.141.656 4.751.233 4.751-.817" stroke="#000" fill="#5c6b2d"/><path d="M81.186 70.861c0 9.801-18.337 16.393-8.235 25.09.91.785 5.419-.33 5.702-.817 2.876-4.955.322-10.372 5.067-14.455 1.198-1.033 2.815 2.029 3.169 2.18 2.184.94 5.613.1 7.917 1.092 1.417.609 1.435-3.675.952-4.092-.859-.737-2.322-2.088-3.802-2.727-3.752-1.615-8.133 2.271-10.136.548-.095-.084-.12-2.08 0-2.183.766-.662 3.438.039 4.117-.546 1.442-1.24 3.373-1.54 4.751-2.727 2.074-1.786-.932-7.651-1.9-6.819-.509.44.827.652.317 1.091-1.225 1.054-3.104-1.518-4.117-2.727-1.268-1.51-4.917-9.338-8.871-7.635-1.51.649-1.342 2.792-2.216 3.544-3.415 2.94-2.758 6.353.634 9.273 2.823 2.431 2.333 4.637 6.335 4.637" stroke="#000" fill="#cb8626"/><path d="M10.863 45.498c3.376 0 2.787 2.644 5.703 3.272 5.903 1.27 11.858 1.575 18.055 1.91.976.051 4.888.92 6.019.272a761.934 761.934 0 0 1 8.235-4.637c2.116-1.178 10.301-5.1 8.87-8.182-1.268-2.729-3.502-5.367-6.652-6.271-.615-.178-2.986-1.249-3.802-.546-1.046.901-2.221 2.185-3.168 2.999-1.738 1.498-4.458 1.742-5.067 4.365-.361 1.556-1.298 4.28-.633 5.999.076.198 1.036 4.018.949 4.091-1.187 1.023-6.878-.481-8.552 0-.31.09-1.845.594-2.218.272-1.054-.907-1.114-2.866-1.9-3.544-1.847-1.592-6.227-1.273-7.92-2.728-.571-.491-1.747-3.818-2.216-3.818-.542 0-.574.928-.952 1.091-2.386 1.027-3.729-.88-5.383.544-.636.548-3.169-.544-3.802 0-.429.372.316 1.483.316 1.911 0 3.059.745 3.545 4.434 3.545" stroke="#000" fill="#c5934a"/><path d="M56.161 2.68c0 4.993-2.046 12.963 1.9 16.363 3.185 2.742 8.067 4.108 10.771-.547.683-1.175-3.168-6.418-3.168-7.907" stroke="#000" fill="#b08280"/><path d="M8.21 7.061c0-1.474-1.64 2.458-2.299 3.776l-1.313 2.628c-1.916 3.83-.934 6.011.164 9.852.274.959.33 2.3 1.314 2.791 2.392 1.196 5.301 1.165 7.881 1.642 4.126.764 8.003.377 12.151-.164 2.178-.284 5.264-.065 7.225-1.313 2.509-1.597 4.321-4.557 6.076-6.897.49-.653 1.66-1.35 1.97-1.97.56-1.12-.83-4.359-.985-4.927-.017-.062-1.117-6.075-1.97-6.075-.659 0-3.579.315-4.434.657-2.956 1.182-5.72 2.901-7.225 5.911-.673 1.347-.186 4.292-1.313 5.419-.194.193-1.746 0-1.971 0-2.323 0-5.594-2.496-6.24-4.434" stroke="#000" fill="#bbcc80"/><path d="M11.33 64.039c1.601 0 3.153 1.446 5.255 1.971 1.987.497 3.557-.028 5.582.985 1.018.509 1.729 1.768 2.792 2.299.215.107 2.878.337 2.956.493.428.855 1.791 1.762 2.134 2.791.521 1.563-2.562 5.879-3.941 6.568-1.418.709-3.778-.035-5.254 0-6.073.145-2.38.041-8.046.657-3.097.337-6.246.665-9.36.821-.656.033-1.506.464-1.97 0-.708-.708 1.771-2.428 2.134-2.791.575-.575.491-1.724 1.314-2.135.895-.447 2.513.139 3.448-.329 1.095-.547 2.583-1.373 3.449-1.806 1.386-.693 3.437-2.783 4.762-3.776.193-.145 1.284-1.11 1.642-1.314.3-.172.985-.675.985-.328 0 .667-4.936 0-5.09 0-3.954 0-6.319-.061-10.017-.986-.713-.178-2.757-.458-3.284-.985-1.128-1.128 2.994-3.612 3.941-3.612M70.115 10.345c0 3.91-.936 7.888-1.806 11.658-.335 1.45-.486 3.035-1.971 3.777-3.904 1.952-8.064.671-11.987 3.612-.601.452-1.219.102-1.806.493-.319.213-.814 3.297-.492 3.941.393.786 1.51 2.211 1.97 3.284.504 1.176.18 2.807 1.149 3.777 1.442 1.441 4.209 1.044 5.912 2.463.37.308 3.749 4.133 4.433 3.448 6.844-6.843 10.967-15.465 16.092-23.153 1.435-2.152 4.669-3.263 5.747-5.418.379-.758-1.49-2.312-1.806-2.628-.456-.455-1.022-1.186-1.478-1.642-.4-.399-3.448-3.126-3.448-3.284" stroke="#000" fill="#606746"/></pattern><pattern id="b" patternTransform="matrix(3.92832 1.03104 -.7538 2.87201 207.749 827.551)" xlink:href="#a"/></defs><path d="M210.836 792.118c0 15.899-9.514 40.757-9.514 57.803 0 9.418 1.465 17.872 1.465 26.745 0 16.413 2.194 32.922 2.194 49.176 0 5.993-2.194 11.282-2.194 15.529 0 5.853.731 10.812.731 14.667.974.863 5.123 4.915 5.123 5.176 2.234.863 1.464-.742 1.464-5.176 3.378-.863 8.349-5.177 14.635-5.177 2.407-1.974 7.139-.862 9.514-.862 0-19.489 5.855-40.503 5.855-61.255 0-9.027 2.195-15.744 2.195-22.431v-18.117-11.216c0 4.039.732 7.176.732 10.353v14.666c0 4.402-1.464 9.384-1.464 11.216v29.333c0 6.405 2.927 10.461 2.927 15.529 0 3.796.732 7.138.732 10.353 0 6.103.732 10.388.732 15.529 0 3.7 7.174 3.451 9.512 3.451 2.066 0 6.205.413 7.318 1.726h8.782c.731-4.811 7.317-14.119 7.317-19.843 4.235-10.846-.731-22.086-.731-31.059 0-10.642 2.195-18.132 2.195-27.607 0-3.612 2.219-25.02 2.927-25.02v-14.666c0-5.65-1.463-11.098-1.463-17.255 0-3.637-1.464-4.239-1.464-7.765-.732-1.652-2.195-5.385-2.195-8.627-.733-3.83-2.196-3.39-2.196-6.039-4.316 0-7.31-3.451-7.317-3.451h-9.514c-4.688 0-7.584-.863-10.977-.863-2.348 1.907-7.215.863-9.512.863h-5.855c-4.95 4.973-6.98.863-9.513.863-3.368-.863-4.078-2.589-7.318-2.589-2.708 0-4.39 2.962-4.39 5.177z" class="clothes" stroke="#000" fill="url(#b)"/></svg>

<svg class="bottomOverlay" width="86" height="380" viewBox="202.715 584.407 86.5933 380.048" preserveAspectRatio="xMidYMid meet" xmlns="http://www.w3.org/2000/svg" xmlns:xlink="http://www.w3.org/1999/xlink">
  <defs id="svgEditorDefs">
    <path id="svgEditorClosePathDefs" fill="moccasin" style="stroke-width: 0px; stroke: none; fill-opacity: 1;" class="clothes"/>
    <pattern id="pattern-0" x="0" y="0" width="20" height="20" patternUnits="userSpaceOnUse" viewBox="0 0 100 100">
      <g>
        <g transform="matrix(8.238136, 0, 0, 7.512292, -41.694321, -34.816807)"/>
        <rect x="-12.007" y="-9.324" width="127.001" height="119.946" style="fill: rgb(102, 141, 105);"/>
        <path d="M 65.98 55.86 C 65.98 61.062 55.249 67.828 51.41 71.134 C 44.624 76.975 47.66 74.46 40.956 79.859 C 37.688 82.493 36.839 83.439 33.671 85.313 C 32.034 86.284 30.084 87.54 28.286 88.315 C 20.738 91.562 20.908 79.823 21.951 77.132 C 22.595 75.467 23.538 73.893 24.169 72.224 C 25.031 69.935 26.341 61.613 29.236 59.95 C 32.42 58.124 41.23 62.095 43.174 63.769 C 43.529 64.077 44.123 67.587 44.123 67.587 C 44.123 67.587 44.079 65.737 44.123 65.679 C 44.569 65.105 46.462 64.221 47.291 64.042 C 49.966 63.467 54.209 64.156 56.477 65.132" style="stroke: rgb(0, 0, 0); fill: rgb(218, 178, 85);"/>
        <path d="M 94.49 46.861 C 93.878 49.498 92.375 51.208 92.908 53.952 C 92.994 54.405 94.49 57.497 94.49 57.497 C 94.49 57.497 90.859 56.115 89.105 55.315 C 83.91 52.947 80.126 48.86 74.851 46.587 C 74.116 46.272 71.683 44.134 71.683 44.134 C 71.683 44.134 72.68 47.911 72.315 48.225 C 70.194 50.052 68.212 51.746 66.616 54.496 C 66.541 54.621 64.275 57.937 64.08 57.769 C 63.273 57.076 64.328 52.981 64.396 52.315 C 65.031 46.316 62.016 43.27 69.466 41.133 C 73.184 40.066 74.217 43.588 76.117 45.223 C 76.9 45.897 80.371 45.665 81.502 46.315 C 82.643 46.971 86.253 46.548 86.253 45.498" style="stroke: rgb(0, 0, 0); fill: rgb(92, 107, 45);"/>
        <path d="M 81.186 70.861 C 81.186 80.662 62.849 87.254 72.951 95.951 C 73.861 96.736 78.37 95.621 78.653 95.134 C 81.529 90.179 78.975 84.762 83.72 80.679 C 84.918 79.646 86.535 82.708 86.889 82.859 C 89.073 83.799 92.502 82.959 94.806 83.951 C 96.223 84.56 96.241 80.276 95.758 79.859 C 94.899 79.122 93.436 77.771 91.956 77.132 C 88.204 75.517 83.823 79.403 81.82 77.68 C 81.725 77.596 81.7 75.6 81.82 75.497 C 82.586 74.835 85.258 75.536 85.937 74.951 C 87.379 73.711 89.31 73.411 90.688 72.224 C 92.762 70.438 89.756 64.573 88.788 65.405 C 88.279 65.845 89.615 66.057 89.105 66.496 C 87.88 67.55 86.001 64.978 84.988 63.769 C 83.72 62.259 80.071 54.431 76.117 56.134 C 74.607 56.783 74.775 58.926 73.901 59.678 C 70.486 62.618 71.143 66.031 74.535 68.951 C 77.358 71.382 76.868 73.588 80.87 73.588" style="stroke: rgb(0, 0, 0); fill: rgb(203, 134, 38);"/>
        <path d="M 10.863 45.498 C 14.239 45.498 13.65 48.142 16.566 48.77 C 22.469 50.04 28.424 50.345 34.621 50.68 C 35.597 50.731 39.509 51.6 40.64 50.952 C 43.325 49.411 46.137 47.841 48.875 46.315 C 50.991 45.137 59.176 41.215 57.745 38.133 C 56.477 35.404 54.243 32.766 51.093 31.862 C 50.478 31.684 48.107 30.613 47.291 31.316 C 46.245 32.217 45.07 33.501 44.123 34.315 C 42.385 35.813 39.665 36.057 39.056 38.68 C 38.695 40.236 37.758 42.96 38.423 44.679 C 38.499 44.877 39.459 48.697 39.372 48.77 C 38.185 49.793 32.494 48.289 30.82 48.77 C 30.51 48.86 28.975 49.364 28.602 49.042 C 27.548 48.135 27.488 46.176 26.702 45.498 C 24.855 43.906 20.475 44.225 18.782 42.77 C 18.211 42.279 17.035 38.952 16.566 38.952 C 16.024 38.952 15.992 39.88 15.614 40.043 C 13.228 41.07 11.885 39.163 10.231 40.587 C 9.595 41.135 7.062 40.043 6.429 40.587 C 6 40.959 6.745 42.07 6.745 42.498 C 6.745 45.557 7.49 46.043 11.179 46.043" style="stroke: rgb(0, 0, 0); fill: rgb(197, 147, 74);"/>
        <path d="M 56.161 2.68 C 56.161 7.673 54.115 15.643 58.061 19.043 C 61.246 21.785 66.128 23.151 68.832 18.496 C 69.515 17.321 65.664 12.078 65.664 10.589" style="stroke: rgb(0, 0, 0); fill: rgb(176, 130, 128);"/>
        <path d="M 8.21 7.061 C 8.21 5.587 6.57 9.519 5.911 10.837 C 5.473 11.713 5.036 12.589 4.598 13.465 C 2.682 17.295 3.664 19.476 4.762 23.317 C 5.036 24.276 5.092 25.617 6.076 26.108 C 8.468 27.304 11.377 27.273 13.957 27.75 C 18.083 28.514 21.96 28.127 26.108 27.586 C 28.286 27.302 31.372 27.521 33.333 26.273 C 35.842 24.676 37.654 21.716 39.409 19.376 C 39.899 18.723 41.069 18.026 41.379 17.406 C 41.939 16.286 40.549 13.047 40.394 12.479 C 40.377 12.417 39.277 6.404 38.424 6.404 C 37.765 6.404 34.845 6.719 33.99 7.061 C 31.034 8.243 28.27 9.962 26.765 12.972 C 26.092 14.319 26.579 17.264 25.452 18.391 C 25.258 18.584 23.706 18.391 23.481 18.391 C 21.158 18.391 17.887 15.895 17.241 13.957" style="stroke: rgb(0, 0, 0); fill: rgb(187, 204, 128);"/>
        <path d="M 11.33 64.039 C 12.931 64.039 14.483 65.485 16.585 66.01 C 18.572 66.507 20.142 65.982 22.167 66.995 C 23.185 67.504 23.896 68.763 24.959 69.294 C 25.174 69.401 27.837 69.631 27.915 69.787 C 28.343 70.642 29.706 71.549 30.049 72.578 C 30.57 74.141 27.487 78.457 26.108 79.146 C 24.69 79.855 22.33 79.111 20.854 79.146 C 14.781 79.291 18.474 79.187 12.808 79.803 C 9.711 80.14 6.562 80.468 3.448 80.624 C 2.792 80.657 1.942 81.088 1.478 80.624 C 0.77 79.916 3.249 78.196 3.612 77.833 C 4.187 77.258 4.103 76.109 4.926 75.698 C 5.821 75.251 7.439 75.837 8.374 75.369 C 9.469 74.822 10.957 73.996 11.823 73.563 C 13.209 72.87 15.26 70.78 16.585 69.787 C 16.778 69.642 17.869 68.677 18.227 68.473 C 18.527 68.301 19.212 67.798 19.212 68.145 C 19.212 68.812 14.276 68.145 14.122 68.145 C 10.168 68.145 7.803 68.084 4.105 67.159 C 3.392 66.981 1.348 66.701 0.821 66.174 C -0.307 65.046 3.815 62.562 4.762 62.562" style="stroke: rgb(0, 0, 0); fill: rgb(96, 103, 70);"/>
        <path d="M 70.115 10.345 C 70.115 14.255 69.179 18.233 68.309 22.003 C 67.974 23.453 67.823 25.038 66.338 25.78 C 62.434 27.732 58.274 26.451 54.351 29.392 C 53.75 29.844 53.132 29.494 52.545 29.885 C 52.226 30.098 51.731 33.182 52.053 33.826 C 52.446 34.612 53.563 36.037 54.023 37.11 C 54.527 38.286 54.203 39.917 55.172 40.887 C 56.614 42.328 59.381 41.931 61.084 43.35 C 61.454 43.658 64.833 47.483 65.517 46.798 C 72.361 39.955 76.484 31.333 81.609 23.645 C 83.044 21.493 86.278 20.382 87.356 18.227 C 87.735 17.469 85.866 15.915 85.55 15.599 C 85.094 15.144 84.528 14.413 84.072 13.957 C 83.672 13.558 80.624 10.831 80.624 10.673" style="stroke: rgb(0, 0, 0); fill: rgb(96, 103, 70);"/>
      </g>
    </pattern>
    <pattern id="pattern-0-0" patternTransform="matrix(3.928318, 1.031037, -0.753798, 2.872012, 207.749039, 827.551025)" xlink:href="#pattern-0"/>
  </defs>
  <path d="M 210.836 792.118 C 210.836 808.017 201.322 832.875 201.322 849.921 C 201.322 859.339 202.787 867.793 202.787 876.666 C 202.787 893.079 204.981 909.588 204.981 925.842 C 204.981 931.835 202.787 937.124 202.787 941.371 C 202.787 947.224 203.518 952.183 203.518 956.038 C 204.492 956.901 208.641 960.953 208.641 961.214 C 210.875 962.077 210.105 960.472 210.105 956.038 C 213.483 955.175 218.454 950.861 224.74 950.861 C 227.147 948.887 231.879 949.999 234.254 949.999 C 234.254 930.51 240.109 909.496 240.109 888.744 C 240.109 879.717 242.304 873 242.304 866.313 C 242.304 859.699 242.304 853.947 242.304 848.196 C 242.304 843.882 242.304 840.431 242.304 836.98 C 242.304 841.019 243.036 844.156 243.036 847.333 C 243.036 852.797 243.036 857.398 243.036 861.999 C 243.036 866.401 241.572 871.383 241.572 873.215 C 241.572 878.104 241.572 882.13 241.572 886.156 C 241.572 892.195 241.572 897.372 241.572 902.548 C 241.572 908.953 244.499 913.009 244.499 918.077 C 244.499 921.873 245.231 925.215 245.231 928.43 C 245.231 934.533 245.963 938.818 245.963 943.959 C 245.963 947.659 253.137 947.41 255.475 947.41 C 257.541 947.41 261.68 947.823 262.793 949.136 C 266.208 949.136 268.892 949.136 271.575 949.136 C 272.306 944.325 278.892 935.017 278.892 929.293 C 283.127 918.447 278.161 907.207 278.161 898.234 C 278.161 887.592 280.356 880.102 280.356 870.627 C 280.356 867.015 282.575 845.607 283.283 845.607 C 283.283 839.464 283.283 836.139 283.283 830.941 C 283.283 825.291 281.82 819.843 281.82 813.686 C 281.82 810.049 280.356 809.447 280.356 805.921 C 279.624 804.269 278.161 800.536 278.161 797.294 C 277.428 793.464 275.965 793.904 275.965 791.255 C 271.649 791.255 268.655 787.804 268.648 787.804 C 264.989 787.804 262.062 787.804 259.134 787.804 C 254.446 787.804 251.55 786.941 248.157 786.941 C 245.809 788.848 240.942 787.804 238.645 787.804 C 236.205 787.804 234.497 787.804 232.79 787.804 C 227.84 792.777 225.81 788.667 223.277 788.667 C 219.909 787.804 219.199 786.078 215.959 786.078 C 213.251 786.078 211.569 789.04 211.569 791.255 Z" style="stroke: black; fill: url(#pattern-0-0);" class="clothes"/>
  <g transform="matrix(0.136585, 0, 0, 0.136585, 353.337769, 791.945129)">
    <g id="layer1" transform="matrix(1, 0, 0, 1, 0, -3.452308)">
      <g id="g4615"/>
    </g>
  </g>
</svg>
